assets/images/illustrations/setup.svg

<svg width="617" height="400" viewBox="0 0 617 400" fill="none" xmlns="http://www.w3.org/2000/svg">
	<rect width="617" height="400" fill="white"/>
	<path d="M592.45 54.7949V44.5338L583.96 43.4221C583.19 39.8564 581.788 36.5301 579.873 33.5715L585.08 26.7821L577.83 19.5309L571.041 24.7384C568.083 22.8145 564.757 21.4121 561.183 20.6511L560.08 12.16H549.82L548.709 20.6511C545.143 21.4121 541.817 22.8145 538.859 24.7384L532.07 19.5309L524.82 26.7821L530.027 33.5715C528.103 36.5301 526.701 39.8564 525.94 43.4221L517.45 44.5338V54.7949L525.94 55.9065C526.701 59.4722 528.103 62.7985 530.027 65.7571L524.82 72.5465L532.07 79.7977L538.859 74.5902C541.817 76.5142 545.143 77.9165 548.709 78.6775L549.82 87.16H560.08L561.191 78.6775C564.757 77.9165 568.083 76.5142 571.041 74.5902L577.83 79.7977L585.08 72.5465L579.873 65.7571C581.797 62.7985 583.199 59.4722 583.96 55.9065L592.45 54.7949Z" fill="#B999FF"/>
	<path d="M87.16 12.16L87.16 206.16H107.16L107.16 12.16H87.16Z" fill="#3C087E"/>
	<path d="M81.21 156.25C87.58 156.25 89.48 151.55 97.15 151.55C104.82 151.55 106.72 156.25 113.09 156.25C119.91 156.25 122.15 150.31 122.15 143.09C122.15 135.87 119.91 129.93 113.09 129.93C106.72 129.93 104.82 134.63 97.15 134.63C89.48 134.63 87.58 129.93 81.21 129.93C74.39 129.93 72.15 135.87 72.15 143.09C72.15 150.31 74.39 156.25 81.21 156.25Z" fill="#B999FF"/>
	<path d="M314 300H194V310H314V300Z" fill="#3C087E"/>
	<path d="M361 320H194V330H361V320Z" fill="#3C087E"/>
	<path d="M364.17 363H194.17V388H364.17V363Z" fill="#B999FF"/>
	<path d="M288 340H194V350H288V340Z" fill="#3C087E"/>
	<path d="M605.17 236.33V193.93H534.06C534.06 193.93 541.69 178.35 541.69 160.94C541.69 143.53 530.44 126.01 508.75 126.01C487.06 126.01 475.81 144.09 475.81 160.94C475.81 177.79 483.44 193.93 483.44 193.93H431.45V220.77V236.33C405.54 221.67 375.21 226.63 375.21 257.08C375.21 287.53 405.54 292.49 431.45 277.83V320.23H483.44C483.44 320.23 475.81 335.81 475.81 353.22C475.81 370.63 487.06 388.15 508.75 388.15C530.44 388.15 541.69 370.07 541.69 353.22C541.69 336.37 534.06 320.23 534.06 320.23H605.17V277.83C579.26 292.49 548.93 287.53 548.93 257.08C548.93 226.63 579.26 221.67 605.17 236.33Z" fill="#3C087E"/>
	<path d="M182 218H12V388H182V218Z" fill="#B999FF"/>
	<path d="M65.84 230.7C81.24 236.1 84.98 254.46 84.98 254.46C84.98 254.46 93.07 237.46 117.7 237.52C106.43 264.86 92.57 321.13 100.09 341.59C107.76 362.44 137.71 353.87 137.05 373.27H93.43L81.85 361.7L80.35 361.72L82.16 373.27H64.04C59.66 347.86 48.83 289.57 65.83 230.7H65.84Z" fill="white"/>
	<path d="M147 12.16V206.16H167V12.16H147Z" fill="#3C087E"/>
	<path d="M141.06 91.68C147.43 91.68 149.33 86.98 157 86.98C164.67 86.98 166.57 91.68 172.94 91.68C179.76 91.68 182 85.74 182 78.52C182 71.3 179.76 65.36 172.94 65.36C166.57 65.36 164.67 70.06 157 70.06C149.33 70.06 147.43 65.36 141.06 65.36C134.24 65.36 132 71.3 132 78.52C132 85.74 134.24 91.68 141.06 91.68Z" fill="#B999FF"/>
	<path d="M254.33 127C286.086 127 311.83 101.256 311.83 69.5C311.83 37.7436 286.086 12 254.33 12C222.574 12 196.83 37.7436 196.83 69.5C196.83 101.256 222.574 127 254.33 127Z" fill="#3C087E"/>
	<path d="M254.33 127C270.17 127 284.5 120.6 294.9 110.24C289.68 89.93 273.5 75.12 254.33 75.12C235.16 75.12 218.98 89.93 213.76 110.24C224.16 120.6 238.5 127 254.33 127Z" fill="#B999FF"/>
	<path d="M254.33 68.5C265.746 68.5 275 59.2458 275 47.83C275 36.4143 265.746 27.16 254.33 27.16C242.914 27.16 233.66 36.4143 233.66 47.83C233.66 59.2458 242.914 68.5 254.33 68.5Z" fill="#B999FF"/>
	<path d="M73.59 248.8C93.46 278.15 91.08 333.11 76.89 333.66C60.64 334.29 69.23 274.59 100.98 256.35" stroke="#3C087E" stroke-width="2" stroke-miterlimit="10"/>
	<path d="M27.3101 12.16L27.3101 206.16H47.3101L47.3101 12.16H27.3101Z" fill="#3C087E"/>
	<path d="M21.3701 120.57C27.7401 120.57 29.6401 115.87 37.3101 115.87C44.9801 115.87 46.8801 120.57 53.2501 120.57C60.0701 120.57 62.3101 114.63 62.3101 107.41C62.3101 100.19 60.0701 94.25 53.2501 94.25C46.8801 94.25 44.9801 98.95 37.3101 98.95C29.6401 98.95 27.7401 94.25 21.3701 94.25C14.5501 94.25 12.3101 100.19 12.3101 107.41C12.3101 114.63 14.5501 120.57 21.3701 120.57Z" fill="#B999FF"/>
	<path d="M67.6301 237.75C55.9401 309.03 62.7101 344.84 68.8601 368.44" stroke="#3C087E" stroke-width="2" stroke-miterlimit="10"/>
	<path d="M92.57 314.64C92.57 314.64 85.8 343.85 108.91 359.36" stroke="#3C087E" stroke-width="2" stroke-miterlimit="10"/>
	<path d="M603.44 90.14C579.49 111.65 522.28 108.02 506 71" stroke="#3C087E" stroke-width="2" stroke-miterlimit="10"/>
	<path d="M397.03 111.049L445.358 127.41L489.251 99.5009L495.66 48.3159L459.754 12.41L408.579 18.8193L380.66 62.712L397.03 111.049Z" fill="#B999FF"/>
	<path d="M463.604 44.4763L411.139 96.9312" stroke="#3C087E" stroke-width="2" stroke-miterlimit="10"/>
	<path d="M331 194H196V218H331V194Z" fill="#3C087E"/>
	<path d="M331 218H196V279H331V218Z" fill="#B999FF"/>
	<path d="M211.73 210.44C214.337 210.44 216.45 208.327 216.45 205.72C216.45 203.113 214.337 201 211.73 201C209.123 201 207.01 203.113 207.01 205.72C207.01 208.327 209.123 210.44 211.73 210.44Z" fill="white"/>
	<path d="M228.58 210.44C231.187 210.44 233.3 208.327 233.3 205.72C233.3 203.113 231.187 201 228.58 201C225.973 201 223.86 203.113 223.86 205.72C223.86 208.327 225.973 210.44 228.58 210.44Z" fill="white"/>
	<path d="M197 168C197 162.532 201.22 158.083 206.47 158H406.56C411.87 158 416.18 162.48 416.18 168C416.18 173.52 411.87 178 406.56 178H206.45C201.22 178 197 173.468 197 168Z" fill="#B999FF"/>
	<path d="M206.45 178H353.68V158H206.47C201.23 158.083 197 162.532 197 168C197 173.468 201.21 178 206.45 178Z" fill="#3C087E"/>
	<path d="M555.41 61.82C562.816 61.82 568.82 55.8161 568.82 48.41C568.82 41.0039 562.816 35 555.41 35C548.004 35 542 41.0039 542 48.41C542 55.8161 548.004 61.82 555.41 61.82Z" fill="white"/>
</svg>

<svg width="223" height="144" viewBox="0 0 617 400" fill="none" xmlns="http://www.w3.org/2000/svg"><path fill="#fff" d="M0 0h617v400H0z"/><path d="M592.45 54.795V44.534l-8.49-1.112a29.6 29.6 0 0 0-4.087-9.85l5.207-6.79-7.25-7.251-6.789 5.207a29.2 29.2 0 0 0-9.858-4.087l-1.103-8.491h-10.26l-1.111 8.491a29.3 29.3 0 0 0-9.85 4.087l-6.789-5.207-7.25 7.251 5.207 6.79a29.3 29.3 0 0 0-4.087 9.85l-8.49 1.112v10.26l8.49 1.113a29.3 29.3 0 0 0 4.087 9.85l-5.207 6.79 7.25 7.25 6.789-5.207a29.2 29.2 0 0 0 9.85 4.087l1.111 8.483h10.26l1.111-8.483a29.2 29.2 0 0 0 9.85-4.087l6.789 5.208 7.25-7.252-5.207-6.789a29.3 29.3 0 0 0 4.087-9.85z" fill="#B999FF"/><path d="M87.16 12.16v194h20v-194z" fill="#3C087E"/><path d="M81.21 156.25c6.37 0 8.27-4.7 15.94-4.7s9.57 4.7 15.94 4.7c6.82 0 9.06-5.94 9.06-13.16s-2.24-13.16-9.06-13.16c-6.37 0-8.27 4.7-15.94 4.7s-9.57-4.7-15.94-4.7c-6.82 0-9.06 5.94-9.06 13.16s2.24 13.16 9.06 13.16" fill="#B999FF"/><path d="M314 300H194v10h120zm47 20H194v10h167z" fill="#3C087E"/><path d="M364.17 363h-170v25h170z" fill="#B999FF"/><path d="M288 340h-94v10h94zm317.17-103.67v-42.4h-71.11s7.63-15.58 7.63-32.99-11.25-34.93-32.94-34.93-32.94 18.08-32.94 34.93 7.63 32.99 7.63 32.99h-51.99v42.4c-25.91-14.66-56.24-9.7-56.24 20.75s30.33 35.41 56.24 20.75v42.4h51.99s-7.63 15.58-7.63 32.99 11.25 34.93 32.94 34.93 32.94-18.08 32.94-34.93-7.63-32.99-7.63-32.99h71.11v-42.4c-25.91 14.66-56.24 9.7-56.24-20.75s30.33-35.41 56.24-20.75" fill="#3C087E"/><path d="M182 218H12v170h170z" fill="#B999FF"/><path d="M65.84 230.7c15.4 5.4 19.14 23.76 19.14 23.76s8.09-17 32.72-16.94c-11.27 27.34-25.13 83.61-17.61 104.07 7.67 20.85 37.62 12.28 36.96 31.68H93.43L81.85 361.7l-1.5.02 1.81 11.55H64.04c-4.38-25.41-15.21-83.7 1.79-142.57z" fill="#fff"/><path d="M147 12.16v194h20v-194z" fill="#3C087E"/><path d="M141.06 91.68c6.37 0 8.27-4.7 15.94-4.7s9.57 4.7 15.94 4.7c6.82 0 9.06-5.94 9.06-13.16s-2.24-13.16-9.06-13.16c-6.37 0-8.27 4.7-15.94 4.7s-9.57-4.7-15.94-4.7c-6.82 0-9.06 5.94-9.06 13.16s2.24 13.16 9.06 13.16" fill="#B999FF"/><path d="M254.33 127c31.756 0 57.5-25.744 57.5-57.5S286.086 12 254.33 12s-57.5 25.744-57.5 57.5 25.744 57.5 57.5 57.5" fill="#3C087E"/><path d="M254.33 127c15.84 0 30.17-6.4 40.57-16.76-5.22-20.31-21.4-35.12-40.57-35.12s-35.35 14.81-40.57 35.12C224.16 120.6 238.5 127 254.33 127m0-58.5c11.416 0 20.67-9.254 20.67-20.67s-9.254-20.67-20.67-20.67-20.67 9.254-20.67 20.67 9.254 20.67 20.67 20.67" fill="#B999FF"/><path d="M73.59 248.8c19.87 29.35 17.49 84.31 3.3 84.86-16.25.63-7.66-59.07 24.09-77.31" stroke="#3C087E" stroke-width="2" stroke-miterlimit="10"/><path d="M27.31 12.16v194h20v-194z" fill="#3C087E"/><path d="M21.37 120.57c6.37 0 8.27-4.7 15.94-4.7s9.57 4.7 15.94 4.7c6.82 0 9.06-5.94 9.06-13.16s-2.24-13.16-9.06-13.16c-6.37 0-8.27 4.7-15.94 4.7s-9.57-4.7-15.94-4.7c-6.82 0-9.06 5.94-9.06 13.16s2.24 13.16 9.06 13.16" fill="#B999FF"/><path d="M67.63 237.75c-11.69 71.28-4.92 107.09 1.23 130.69m23.71-53.8s-6.77 29.21 16.34 44.72M603.44 90.14C579.49 111.65 522.28 108.02 506 71" stroke="#3C087E" stroke-width="2" stroke-miterlimit="10"/><path d="m397.03 111.049 48.328 16.361 43.893-27.91 6.409-51.184-35.906-35.906-51.175 6.41-27.919 43.892z" fill="#B999FF"/><path d="m463.604 44.476-52.465 52.455" stroke="#3C087E" stroke-width="2" stroke-miterlimit="10"/><path d="M331 194H196v24h135z" fill="#3C087E"/><path d="M331 218H196v61h135z" fill="#B999FF"/><path d="M211.73 210.44a4.72 4.72 0 1 0 0-9.44 4.72 4.72 0 0 0 0 9.44m16.85 0a4.72 4.72 0 1 0 0-9.44 4.72 4.72 0 0 0 0 9.44" fill="#fff"/><path d="M197 168c0-5.468 4.22-9.917 9.47-10h200.09c5.31 0 9.62 4.48 9.62 10s-4.31 10-9.62 10H206.45c-5.23 0-9.45-4.532-9.45-10" fill="#B999FF"/><path d="M206.45 178h147.23v-20H206.47c-5.24.083-9.47 4.532-9.47 10s4.21 10 9.45 10" fill="#3C087E"/><path d="M555.41 61.82c7.406 0 13.41-6.004 13.41-13.41S562.816 35 555.41 35 542 41.004 542 48.41s6.004 13.41 13.41 13.41" fill="#fff"/></svg>
